X:1
T:Geampara
R:geampara
D:Roar Engelberg
O:Romania
Z:id:hn-geampara-1
M:2+2+3/16
L:1/16
Q:1/8=220
K:Ador ^d
Bccc ccc | eddc cBA | Bce2 ABc | eddc cBA |
defd efg | a2gf edc | d2cB ABc | B4-B3 :|
|: def^g aga | b2a^g af=g | aa=gg efe | =dddB ^ccA |
^defd efg | aagg ee=c | eecc ABc | B4-B3 :|
|: Bccc ccc | edcc cBA | BceE ABc | edcc cBA |
defd efg | aagf eec | edcc ABc | B4-B3 :|
|: EDE^G AB^c | defd efg | aagg eae | =dddB ^ccA |
^defd efg | aagg ee=c | edcc ABc | B4-B3 :|
|: Bccc ccc | edcc cBA | BceE ABc | edcc cBA |
defd efg | aagg eec | edcc ABc | B4-B3 :|

